public/assets/images/icons/yellow/visibility-visible/medal.svg

<svg width="16" height="16" xmlns="http://www.w3.org/2000/svg" viewBox="0 0 16 16" shape-rendering="geometricPrecision" fill="#ffad00"><defs><mask id="a"><rect fill="#fff" width="100%" height="100%"/><path d="M12.997.858a4.809 4.809 0 0 0-4.253 2.563 4.81 4.81 0 0 0 8.506 0A4.812 4.812 0 0 0 12.997.858z" fill="#000"/></mask></defs><path d="M12.971 1.607c-1.315 0-2.454.74-3.029 1.825a3.425 3.425 0 0 0 6.058 0 3.43 3.43 0 0 0-3.029-1.825z" fill="#cb1800"/><g mask="url(#a)"><path d="M10.561 10.525l-1.329-.154-1.106.752-1.104-.752-.046.005 1.373 4.955 1.665-1.83 2.382.709-1.3-4.691z"/><path d="M12.169 5.086l.283-1.182-.996-.698-.298-1.178-1.207-.155L9.14.969 8 1.392 6.86.969l-.811.904-1.206.155-.3 1.178-.995.698.283 1.182-.558 1.081.8.915.008 1.215 1.134.44.572 1.073 1.209-.139 1.003.684 1.006-.686 1.208.139.571-1.072 1.134-.44.008-1.215.8-.915-.557-1.08zm-4.17 4.475a3.898 3.898 0 1 1 0-7.796 3.897 3.897 0 1 1 0 7.796z"/><circle cx="8.03" cy="5.662" r="3.143"/><path d="M5.486 10.511L4.857 9.33l-.035-.014-1.092 4.961 2.529-.908 1.338 1.317-1.186-4.282z"/></g></svg>

<?xml version="1.0"?><!DOCTYPE svg PUBLIC "-//W3C//DTD SVG 1.1//EN" "http://www.w3.org/Graphics/SVG/1.1/DTD/svg11.dtd"><svg width="16px" height="16px" xmlns="http://www.w3.org/2000/svg" viewBox="0 0 16 16" shape-rendering="geometricPrecision" fill="#ffad00"><defs><mask id="visibility-visible-path"><rect fill="#fff" width="100%" height="100%"/><path d="M12.997,0.858c-1.845,0-3.446,1.039-4.253,2.563c0.808,1.523,2.408,2.562,4.253,2.562 c1.844,0,3.444-1.039,4.253-2.562C16.441,1.897,14.841,0.858,12.997,0.858z" fill="#000"/></mask></defs><path display="inline" d="M12.971,1.607c-1.315,0-2.454,0.74-3.029,1.825 c0.575,1.085,1.715,1.825,3.029,1.825c1.314,0,2.453-0.74,3.029-1.825C15.424,2.348,14.284,1.607,12.971,1.607z" fill="#cb1800"/><g mask="url(#visibility-visible-path)"><g><g><polygon points="10.561,10.525 9.232,10.371 8.126,11.123 7.022,10.371 6.976,10.376 8.349,15.331 10.014,13.501 12.396,14.21 11.096,9.519"/></g><path d="M12.169,5.086l0.283-1.182l-0.996-0.698l-0.298-1.178L9.951,1.873L9.14,0.969l-1.14,0.423L6.86,0.969L6.049,1.873 L4.843,2.028L4.543,3.206L3.548,3.904l0.283,1.182L3.273,6.167l0.8,0.915l0.008,1.215l1.134,0.44L5.787,9.81l1.209-0.139 l1.003,0.684l1.006-0.686l1.208,0.139l0.571-1.072l1.134-0.44l0.008-1.215l0.8-0.915L12.169,5.086z M7.999,9.561 c-2.153,0-3.898-1.745-3.898-3.898c0-2.153,1.745-3.898,3.898-3.898c2.154,0,3.899,1.744,3.899,3.897S10.153,9.561,7.999,9.561z"/><circle cx="8.03" cy="5.662" r="3.143"/><g><polygon points="5.486,10.511 4.857,9.33 4.822,9.316 3.73,14.277 6.259,13.369 7.597,14.686 6.411,10.404"/></g></g></g></svg>
